X: 1
T: Dedekii
P: piffero primo a0748
O: Jacobs
%R: jig
F: http://ancients.sudburymuster.org/mus/sng/pdf/dedekiiC0.pdf
Z: 2020 John Chambers <jc:trillian.mit.edu>
M: 6/8
L: 1/8
K: G
d !segno!|\
dBc d2e | dBc d2g | fde fga | b2a gfe |\
dBc d2e | dBc d2g | fde fba | g2z !fine!z2 :|
d |\
d3- d2e | (e2d) g2B | d3- dcA | f3 Ace |\
(e2d) (e2d) | (d2c) a2c | BGA Bed | A3 ABc |
d3- d2e | e2d g2B | e3- edc | A3 (cde) |\
(d2c) (b2a) | g2d B2e | d3- dAB | G2z "^DS al Fine"gfe |]
